X: 23
T:Hibernia's Pride Reel
M:2/4
L:1/16
Z:abc by Bruce Osborne - bosborne@kos.net
K:G
G2BA G2BG|FGAB c2Bc|dggf d2eg|fdcA BGAF|!
G2BA G2BG|FGAB c2Bc|dggf d2eg|fdcA BGG2:|!
|:gfge d2ef|gfga bgaf|gfge d2eg|fdcA BGG2|!
gfge d2ef|gfga bgaf|gfge d2eg|fdcA BGG2:|!
